X:1
T:Who Is This Man of Sorrows?
T:Who Is This Man of Sorrows?
T:Lelia Naylor Morris
T:Lelia Naylor Morris, 1899
T:Public Domain Courtesy of the Cyber Hymnal™
T:Public Domain Courtesy of the Cyber Hymnal™
C:Lelia Naylor Morris
Z:Public Domain
Z:Courtesy of the Cyber Hymnal™
%%score ( 1 2 ) ( 3 4 )
L:1/8
Q:1/4=110
M:9/8
K:F
V:1 treble 
V:2 treble 
V:3 bass 
V:4 bass 
V:1
 D2"^Solo" D D2 E FED | A3 D3 D2 E | F3- [DF]2 [DF] [EG]2 [DF] | [^CE]6 F2 A | %4
w: 1.~Who is this that com- eth from|E- dom, Crim- son|red His gar- ments dyed?|* In His|
w: 2.~Who is this, des- pised and re-|ject- ed, Who the|wine- press trod a- lone?|* Who is|
w: 3.~Who is this with bear- ing so|king- ly, And a|crown His brow a- dorns,|* Not of|
w: 4.~Who is this on Cal- va- ry’s|mount- ain, Dy- ing|there such shame- ful death?|* Who for|
 A3- [FA]2 [FA] [Fd]2 [FA] | [EB]3 [FA]3 G2 F | F3- [DF]2 [DF] [DG]2 [D^G] | [^CA]6 A2 A | %8
w: hands are cru- el nail|* prints, And a|spear wound in His side?|* Say, who|
w: this by all for- sak-|* en, Left to|com- fort there are none?|* Who is|
w: gold and gems be- fit-|* ting, But of|mock- ing, cru- el thorns?|* Why with|
w: His tor- ment- ors pray-|* ing, With His|last ex- pir- ing breath?|* Who is|
 [Ec]3- [Ec]2 [EB] (GA)[EB] | [FA]3 F3 F2 F | [DF]3- [DF]2 [DF] [B,D]2 [B,D] | [A,C]6 C2 C | %12
w: is * this “Man * of|Sor- rows”? Why is|He * thus pierced and|scarred? Who with|
w: this * op- pressed, * af-|flict- ed, Yet no|mur- * mur ev- er|heard; As a|
w: ma- * ny stripes * thus|beat- en? Why thus|scourged * and spit up-|on? Why His|
w: this * that earth * should|trem- ble And the|sun * in dark- ness|hide, Rocks be|
 [A,F]3- [A,F]2 F [EG]2 [EG] | [FA]3 [Fc]3 [Fd]2 [DB] | A3- [FA]2 F [EA]2 [EG] | [CF]6 || %16
w: face * and form so|king- ly! Why His|beau- teous vis- age marred?||
w: Lamb * led to the|slaugh- ter, Yet He|an- swers not a word!|It|
w: an- * guish in the|gar- den, Kneel- ing,|pray- ing all a- lone?||
w: rent * and graves be|o- pened, When He|bowed His head and died?||
"^Refrain" c2 c | c3- [Ec]2 [EB] ([EG][FA])[GB] | [FA]3 [DF]3 F2 F | d3- [Fd]2 [Fd] [G=B]2 [FB] | %20
w: ||||
w: is Christ,|the King of glo- * ry,|* Who His life|a ran- som gave, Bow|
w: ||||
w: ||||
 c3- [Ec]3 ([Ac][Bd])[Be] | [Af]3 [Ac]3 ([FA][GB])[Ac] | [Gd]3 !fermata![Ff]3 B2 G | %23
w: |||
w: * be- fore * Him,|* and a- * dore|Him, Je- sus Christ|
w: |||
w: |||
 F2 A (c c2) c3 | c3 [Ec]3 [CE]3 | F3 ([DF]3 [CF]3) |] %26
w: |||
w: the might- y * to|* save. *||
w: |||
w: |||
V:2
 x9 | x9 | D2 D x6 | x9 | F2 F x6 | x9 | D2 D x6 | x9 | x6 E2 x | x3 F3 x3 | x9 | x9 | x5 F x3 | %13
 x9 | (F2 F F) x5 | x6 || x3 | E2 E x6 | x9 | F2 F x6 | E2 E x6 | x9 | x6 B2 G | F2 A c c2 c2 F | %24
 E E2 x6 | C C2 x6 |] %26
V:3
 D,2 A,, D,2 E, F,E,D, | A,3 D,3 z3 | ([D,A,]2 [D,A,] [D,A,]2) [D,A,] [^C,A,]2 [D,A,] | %3
w: ~ ~ ~ ~ ~ ~ ~|~ ~|~ * * ~ ~ ~|
 [A,,A,]6 z3 | ([D,D]2 [D,D] [D,D]2) [D,D] [D,A,]2 [D,A,] | [C,G,]3 [D,F,]3 z3 | %6
w: ~|~ * * ~ ~ ~|~ ~|
 ([B,,F,]2 [B,,F,] [B,,F,]2) [B,,F,] [B,,E,]2 [B,,D,] | [A,,E,]6 z3 | (C,E,G, C2) z C2 z | %9
w: ~ * * ~ ~ ~|~|~ * * * ~|
 (F,A,C) [F,A,]3 z3 | (B,,D,F, B,2) z [B,,F,]2 [B,,F,] | [F,,F,]6 z3 | %12
w: ~ * * ~|~ * * * ~ ~|~|
 (F,,A,,C, F,2) z [C,C]2 [C,C] | [F,C]3 [F,A,]3 [B,,B,]2 z | %14
w: ~ * * * ~ ~|~ ~ ~|
 ([C,C]2 [C,C] [C,C]2) [C,A,] [C,C]2 [C,B,] | [F,A,]6 || z3 | %17
w: ~ * * ~ ~ ~|~||
 [C,G,]2 [C,G,] [C,G,]2 [C,G,] [C,C]2 [C,C] | [F,C]2 [F,C] [F,A,]2 [F,A,] z3 | %19
w: It is Christ, the King, the|King of glo- ry,|
 [B,,B,]2 [B,,B,] B,2 B, [G,D]2 G, | [C,G,]2 [C,G,] [C,G,]3 C2 C | [F,C]3 [F,F]3 [F,C]2 [F,F] | %22
w: Who His life, His life a|ran- som gave, ~ ~|~ ~ ~ ~|
 [B,,F]3 !fermata![B,,D]3 B,2 G, | F,2 A, C C2 C2 [F,A,] | [C,G,] [C,G,]2- [C,G,]3 [C,B,]3 | %25
w: ~ ~ ~ ~|~ ~ ~ ~ ~ the|migh- ty, * the|
 [F,A,] [F,A,]2 [F,B,]3 [F,A,]3 |] %26
w: might- y to save.|
V:4
 x9 | x9 | x9 | x9 | x9 | x9 | x9 | x9 | x9 | x9 | x9 | x9 | x9 | x9 | x9 | x6 || x3 | x9 | x9 | %19
 x3 B,2 B, x G, x | x6 C2 C | x9 | x6 B,2 G, | F,2 A, C C2 C2 x | x9 | x9 |] %26

